X:041
T: Rakes of Clonmel
N: O'Farrell's Pocket Companion v.1 (Sky ed. p.35)
N: "Irish"
M: 6/8
L: 1/8
R: jig
Q: 320
K: Am
E|ABA G^FG|EAA A2B|cBc Adc|BGG G2^f|
gfe dBG|GAG Bcd|efe Ace|dBG A2 :|
P:2
e|a2a aga|ecA A2f|gag gfe|dBG GAB|c2c E2E|d2d E2E|
efe Ace|dBG A2 :|
P:3
c/d/|ecc A2c|ecc A2 B/c/|dBB GBB|
dBB GAB|c2c E2E|d2d E2E|efe Ace|dBG A2 :|
